public/library/gnosisscan-icon-dark.svg

<svg width="144" height="143" viewBox="0 0 144 143" fill="none" xmlns="http://www.w3.org/2000/svg">
<g clip-path="url(#clip0_12846_1619)">
<path d="M42.755 81.2518C47.0026 81.2518 50.9236 79.8404 54.0824 77.3974L28.1599 51.5559C25.7092 54.6505 24.2932 58.5592 24.2932 62.8481C24.2388 72.9999 32.5166 81.2518 42.755 81.2518Z" fill="#EFEBDF"/>
<path d="M119.869 62.7936C119.869 58.5593 118.453 54.6506 116.002 51.5017L90.0796 77.3429C93.184 79.7859 97.105 81.1973 101.407 81.1973C111.591 81.2516 119.869 73 119.869 62.7936Z" fill="#EFEBDF"/>
<path d="M132.939 34.7268L121.448 46.1818C125.26 50.7418 127.548 56.4964 127.548 62.9027C127.548 77.2888 115.839 88.9609 101.407 88.9609C95.0355 88.9609 89.2083 86.6808 84.6339 82.8807L72.0537 95.4212L59.4736 82.8807C54.8991 86.6808 49.1264 88.9609 42.7002 88.9609C28.2684 88.9609 16.5597 77.2888 16.5597 62.9027C16.5597 56.5507 18.8471 50.7418 22.6593 46.1818L16.7777 40.3186L11.1683 34.7268C4.63327 45.4759 0.875488 58.0167 0.875488 71.4802C0.875488 110.676 32.734 142.381 71.9993 142.381C111.264 142.381 143.123 110.622 143.123 71.4802C143.232 57.9625 139.474 45.4217 132.939 34.7268Z" fill="#EFEBDF"/>
<path d="M123.518 22.5116C110.611 8.99386 92.3125 0.524902 72.0539 0.524902C51.7949 0.524902 33.5512 8.99386 20.5898 22.5116C18.8472 24.3576 17.1591 26.3121 15.5796 28.3206L71.9994 84.5632L128.419 28.2663C127.003 26.3118 125.315 24.3033 123.518 22.5116ZM72.0539 9.75392C88.7183 9.75392 104.185 16.16 115.784 27.8321L72.0539 71.4256L28.323 27.8321C39.9773 16.16 55.3894 9.75392 72.0539 9.75392Z" fill="#EFEBDF"/>
</g>
<defs>
<clipPath id="clip0_12846_1619">
<rect width="144" height="143" fill="white"/>
</clipPath>
</defs>
</svg>

<svg xmlns="http://www.w3.org/2000/svg" width="144" height="143" fill="none" viewBox="0 0 144 143"><g fill="#efebdf" clip-path="url(#a)"><path d="M42.755 81.252c4.248 0 8.169-1.412 11.327-3.855L28.16 51.556c-2.45 3.095-3.867 7.003-3.867 11.292C24.24 73 32.517 81.252 42.755 81.252M119.869 62.794a18.28 18.28 0 0 0-3.867-11.292L90.08 77.342c3.104 2.444 7.025 3.855 11.327 3.855 10.184.055 18.462-8.197 18.462-18.403"/><path d="m132.939 34.727-11.491 11.455c3.812 4.56 6.1 10.314 6.1 16.72 0 14.387-11.709 26.059-26.141 26.059-6.371 0-12.199-2.28-16.773-6.08l-12.58 12.54-12.58-12.54c-4.575 3.8-10.348 6.08-16.774 6.08-14.432 0-26.14-11.672-26.14-26.058 0-6.352 2.287-12.161 6.1-16.721l-5.882-5.863-5.61-5.592C4.633 45.476.875 58.017.875 71.48c0 39.196 31.859 70.901 71.124 70.901s71.124-31.759 71.124-70.9c.109-13.518-3.649-26.06-10.184-36.754"/><path d="M123.518 22.512C110.611 8.994 92.313.525 72.054.525c-20.26 0-38.503 8.469-51.464 21.987a86 86 0 0 0-5.01 5.809L72 84.563l56.419-56.297a48 48 0 0 0-4.901-5.754M72.054 9.754c16.664 0 32.131 6.406 43.73 18.078l-43.73 43.594-43.731-43.594C39.977 16.16 55.389 9.754 72.053 9.754"/></g><defs><clipPath id="a"><path fill="#fff" d="M0 0h144v143H0z"/></clipPath></defs></svg>
